Origami/24x24/apps/applications-education-mathematics.svg

<svg width="24" height="24" version="1" xmlns="http://www.w3.org/2000/svg">
 <g transform="translate(1,1)">
  <path d="m19 20v-18c0-0.554-0.446-1-1-1h-14c-0.554 0-1 0.446-1 1v18c0 0.554 0.446 1 1 1h14c0.554 0 1-0.446 1-1z" style="fill:#636e73"/>
  <g transform="matrix(.37038 0 0 .35 2.2962 2.6)" opacity=".2">
   <g transform="matrix(1.5923,0,0,1.6185,10,11.802)">
    <path transform="matrix(1.6956163,0,0,1.765303,-11.869314,-13.647028)" d="m11.958984 8.5019531l-1.55664 5.1035159-1.1562502-2.703125h-2.2460938v0.935547h1.5917969l1.5566411 3.660156h0.691406l1.851562-6.0566408h3.195313v-0.9394531h-3.927735zm0.75 2.7988279l1.628907 2.001953-1.78125 2.197266h0.888671l1.333985-1.650391 1.333984 1.650391h0.888672l-1.744141-2.15625 1.658204-2.042969h-0.888672l-1.214844 1.496094-1.216797-1.496094h-0.886719z"/>
   </g>
  </g>
  <g transform="matrix(.37038 0 0 .35 2.2962 2.1001)" fill="#d08283">
   <g transform="matrix(1.5923,0,0,1.6185,10,11.802)">
    <path transform="matrix(1.6956163,0,0,1.765303,-11.869314,-12.764553)" d="m11.958984 8.0019531l-1.55664 5.1035159-1.1562502-2.703125h-2.2460938v0.935547h1.5917969l1.5566411 3.660156h0.691406l1.851562-6.0566408h3.195313v-0.9394531h-3.927735zm0.75 2.7988279l1.628907 2.001953-1.78125 2.197266h0.888671l1.333985-1.648438 1.333984 1.648438h0.888672l-1.744141-2.15625 1.658204-2.042969h-0.888672l-1.214844 1.496094-1.216797-1.496094h-0.886719z" style="fill:#ee8a8a"/>
   </g>
  </g>
  <path d="m4 1c-0.554 0-1 0.446-1 1v0.5c0-0.554 0.446-1 1-1h14c0.554 0 1 0.446 1 1v-0.5c0-0.554-0.446-1-1-1z" fill="#fff" opacity=".1"/>
  <path d="m3 20v0.5c0 0.554 0.446 1 1 1h14c0.554 0 1-0.446 1-1v-0.5c0 0.554-0.446 1-1 1h-14c-0.554 0-1-0.446-1-1z" opacity=".2"/>
 </g>
</svg>

<svg xmlns="http://www.w3.org/2000/svg" width="24" height="24" version="1">
 <g transform="translate(1,1)">
  <path fill="#395d6d" d="m19 20v-18c0-0.554-0.446-1-1-1h-14c-0.554 0-1 0.446-1 1v18c0 0.554 0.446 1 1 1h14c0.554 0 1-0.446 1-1z"/>
  <g opacity=".2" transform="matrix(.37038 0 0 .35 2.2962 2.6)">
   <g transform="matrix(1.5923,0,0,1.6185,10,11.802)">
    <g>
     <g>
      <path d="M 11.958984 8.5019531 L 10.402344 13.605469 L 9.2460938 10.902344 L 7 10.902344 L 7 11.837891 L 8.5917969 11.837891 L 10.148438 15.498047 L 10.839844 15.498047 L 12.691406 9.4414062 L 15.886719 9.4414062 L 15.886719 8.5019531 L 11.958984 8.5019531 z M 12.708984 11.300781 L 14.337891 13.302734 L 12.556641 15.5 L 13.445312 15.5 L 14.779297 13.849609 L 16.113281 15.5 L 17.001953 15.5 L 15.257812 13.34375 L 16.916016 11.300781 L 16.027344 11.300781 L 14.8125 12.796875 L 13.595703 11.300781 L 12.708984 11.300781 z" transform="matrix(1.6956163,0,0,1.765303,-11.869314,-13.647028)"/>
     </g>
    </g>
   </g>
  </g>
  <g fill="#d08283" transform="matrix(.37038 0 0 .35 2.2962 2.1001)">
   <g transform="matrix(1.5923,0,0,1.6185,10,11.802)">
    <g>
     <g>
      <path style="fill:#ff6868" d="M 11.958984 8.0019531 L 10.402344 13.105469 L 9.2460938 10.402344 L 7 10.402344 L 7 11.337891 L 8.5917969 11.337891 L 10.148438 14.998047 L 10.839844 14.998047 L 12.691406 8.9414062 L 15.886719 8.9414062 L 15.886719 8.0019531 L 11.958984 8.0019531 z M 12.708984 10.800781 L 14.337891 12.802734 L 12.556641 15 L 13.445312 15 L 14.779297 13.351562 L 16.113281 15 L 17.001953 15 L 15.257812 12.84375 L 16.916016 10.800781 L 16.027344 10.800781 L 14.8125 12.296875 L 13.595703 10.800781 L 12.708984 10.800781 z" transform="matrix(1.6956163,0,0,1.765303,-11.869314,-12.764553)"/>
     </g>
    </g>
   </g>
  </g>
  <path fill="#fff" opacity=".1" d="m4 1c-0.554 0-1 0.446-1 1v0.5c0-0.554 0.446-1 1-1h14c0.554 0 1 0.446 1 1v-0.5c0-0.554-0.446-1-1-1z"/>
  <path opacity=".2" d="m3 20v0.5c0 0.554 0.446 1 1 1h14c0.554 0 1-0.446 1-1v-0.5c0 0.554-0.446 1-1 1h-14c-0.554 0-1-0.446-1-1z"/>
 </g>
</svg>
